X:050
%%topmargin 3cm
T:Democratic
B:The Nelson Music Collection
N:Newton F. Tolman & K. Dep. Gilbert
Z:Transcribed by Ralph Palmer
R:Hornpipe
L:1/16
M:2/4
K:Gm
GA | BABc dcdf | gfga fabg | fdbg fdcd | BAGF GFDF |
G2GA BABG | F2FG AGFD | GABc dcBA | B2G2 G2 ::
g2 | gfdf gabg | gfdf GFDF | BABc dcde | fcdB AGFD |
BFdB AFec | BGdB AFec | dfga bagf | d2g2 g2 :|]

